X:6764
T:The first day in spring
O:england
M:4/4
L:1/8
S:Aoife O'Keeffe
R:reel
K:Gdor
d2 cA GFDF | G2 cG dGcG | AdcA GFDF | Gg (3fga g3 a |
bagf dcAg | agfd cA^FA | G2 cG dGcG | AdcA G4 :||
||: g3 a bg ~g2 | gbag fdde | fage f2 Af | cfag fdcA |
g3 a bg ~g2 | afge fdcA | G2 cG dGcG |1 AdcA G4 :||
2 Adca G3 F ||
||: DG ~G2 GdcA | G2 cG dGcG | DF ~F2 FcAG | F2 cF dFcF |
DG ~G2 GdcA | G2 cG dc c2 | afge fdcA | AdcA G4 :||
